X:365
M:C|
L:1/8
K:E Minor
d|B2 BG A2 Ad|B2 Bd efgd|B2 BG A2Ad|BAB^d e2 eB:|
efga f2 df|efge afge|dBBd efgd||

